src/assets/img/logos/logo-serie--sem-fronteiras--white.svg

<svg fill="none" height="92" viewBox="0 0 312 92" width="312" xmlns="http://www.w3.org/2000/svg"><path d="m12.9942 9.64545-10.34394 6.73905c-.2538.1656-.55057.2623-.85824.2797-.30766.0175-.61453-.045-.8874-.1807-.272866-.1357-.501347-.3393-.660787-.589-.1594402-.2497-.24376731-.5359-.24383708-.8277v-13.46629c.00041206-.29166.08490218-.57768.24434708-.82725.159446-.249567.387806-.453213.660481-.588994.272676-.1357809.579316-.1985473.886896-.18153742.30757.01700982.60442.11314942.85854.27806342l10.34394 6.739078c.2255.14718.4098.344.5371.57354s.1939.48493.1939.74419c0 .25927-.0666.51465-.1939.7442-.1273.22954-.3116.42637-.5371.57355" fill="#e52228" transform="matrix(2 0 0 2 2.77783 27.7785)"/><g fill="#fff" transform="matrix(2 0 0 2 39.7943 32.3054)"><path d="m0 9.8361c.897849 1.3934 2.64367 2.0984 4.05695 2.0984 2.5439 0 4.53912-1.1312 4.97142-3.39349.54869-2.88525-1.44653-3.65575-3.49163-4.0328-.89785-.19672-1.49642-.4918-1.41329-1.16394.06651-.59016.69833-.86885 1.44654-.85246.6817.0164 1.46316.27869 1.96197.83607l2.16148-1.47542c-1.01423-1.459016-2.34438-1.85246-3.77429-1.85246-2.16149 0-4.28972.836068-4.73864 3.21313-.415676 2.19672 1.24701 3.65575 3.09259 3.95083.94773.13115 1.97859.44262 1.84557 1.16394-.11638.60656-.81471.88525-1.6128.88525-.88122 0-1.8622-.37705-2.37764-1.11476z"/><path d="m14.1051 2.93444h5.1876l.3991-2.770505h-8.1971l-1.64603 11.606565h8.19703l.3824-2.77047h-5.1876l.2494-1.73771h4.7719l.3658-2.60657h-4.7719z"/><path d="m19.6234 11.7705h2.9762l.4656-3.34424.1496-2.34427.0665-.0164 1.0143 3.98361h2.0451l2.1116-3.98361.0831.0164-.4988 2.34427-.4822 3.34424h2.9929l1.646-11.606565h-2.9762l-3.3087 5.672155-1.6627-5.672155h-2.9762z"/><path d="m39.7111 2.95083h5.1876l.399-2.786895h-8.197l-1.6461 11.606565h3.0095l.5653-3.99998h4.5391l.3825-2.73772h-4.5392z"/><path d="m51.502 11.7705h3.7078l-2.8266-3.98359c1.6128-.7541 2.5439-1.47541 2.8432-3.62296.3325-2.72132-1.3966-4.000015-3.8242-4.000015h-4.7054l-1.646 11.606565h3.0094l.5155-3.68851h.532zm-2.5605-6.2131.3824-2.65575h1.7458c.8812 0 1.2304.60656 1.1473 1.31148-.0832.67213-.6152 1.34427-1.5297 1.34427z"/><path d="m55.9031 7.95085c-.3825 2.65575 1.8622 3.98365 4.3063 3.98365 2.5605 0 5.0712-1.3279 5.4536-3.98365l.5819-3.96723c.3825-2.65575-1.8788-3.98362-4.3229-3.98362-2.4442 0-5.038 1.31148-5.437 3.98362zm3.5581-3.96723c.133-.86886 1.1805-1.31148 2.1449-1.31148.9643 0 1.7957.44262 1.6626 1.31148l-.5819 3.88526c-.133.91803-1.1805 1.34427-2.1449 1.34427-.8978 0-1.779-.42624-1.6626-1.2623z"/><path d="m66.6949 11.7705h2.9762l.6485-4.63933-.0333-2.24591.0665-.01639.6983 2.32787 2.0119 4.57376h3.0094l1.6461-11.606565h-2.9596l-.7482 5.262315.0333 2-.0665.0164-.6651-2.32788-2.1449-4.950835h-2.8265z"/><path d="m87.824 2.83607.399-2.688528h-9.3609l-.399 2.688528h3.1757l-1.247 8.93443h3.0094l1.247-8.93443z"/><path d="m91.9785 2.93444h5.1875l.3991-2.770505h-8.197l-1.6461 11.606565h8.197l.3824-2.77047h-5.1875l.2494-1.73771h4.7719l.3658-2.60657h-4.7719z"/><path d="m102.119.163935h-2.9762l-1.646 11.606565h2.9762z"/><path d="m108.787 11.7705h3.707l-2.826-3.98359c1.613-.7541 2.544-1.47541 2.843-3.62296.333-2.72132-1.397-4.000015-3.824-4.000015h-4.706l-1.646 11.606565h3.01l.515-3.68851h.532zm-2.561-6.2131.383-2.65575h1.745c.882 0 1.231.60656 1.148 1.31148-.084.67213-.616 1.34427-1.53 1.34427z"/><path d="m120.435.163935h-2.71l-5.753 11.606565h3.192l1.048-2.32785h3.142l.449 2.32785h3.193zm-3.176 6.672155 1.297-3.39346h.117l.349 3.39346z"/><path d="m123.191 9.8361c.898 1.3934 2.644 2.0984 4.057 2.0984 2.544 0 4.539-1.1312 4.972-3.39349.548-2.88525-1.447-3.65575-3.492-4.0328-.898-.19672-1.496-.4918-1.413-1.16394.066-.59016.698-.86885 1.446-.85246.682.0164 1.463.27869 1.962.83607l2.162-1.47542c-1.015-1.459016-2.345-1.85246-3.775-1.85246-2.161 0-4.289.836068-4.738 3.21313-.416 2.19672 1.247 3.65575 3.092 3.95083.948.13115 1.979.44262 1.846 1.16394-.117.60656-.815.88525-1.613.88525-.881 0-1.862-.37705-2.378-1.11476z"/></g></svg>

<svg width="152" height="17" viewBox="0 0 152 17" fill="none" xmlns="http://www.w3.org/2000/svg">
<path d="M12.9942 9.64545L2.65026 16.3845C2.39646 16.5501 2.09969 16.6468 1.79202 16.6642C1.48436 16.6817 1.17749 16.6192 0.90462 16.4835C0.631754 16.3478 0.403273 16.1442 0.243833 15.8945C0.0843928 15.6448 6.56924e-05 15.3586 -4.08224e-06 15.0668V1.60051C0.000407984 1.30885 0.0848981 1.02283 0.244343 0.77326C0.403789 0.523693 0.632149 0.320047 0.904824 0.184266C1.1775 0.0484851 1.48414 -0.0142813 1.79172 0.00272858C2.09929 0.0197384 2.39614 0.115878 2.65026 0.280792L12.9942 7.01987C13.2197 7.16705 13.404 7.36387 13.5313 7.59341C13.6586 7.82295 13.7252 8.07834 13.7252 8.3376C13.7252 8.59687 13.6586 8.85225 13.5313 9.0818C13.404 9.31134 13.2197 9.50817 12.9942 9.65535" fill="#E52228"/>
<path d="M0 9.8361C0.897849 11.2295 2.64367 11.9345 4.05695 11.9345C6.60085 11.9345 8.59607 10.8033 9.02837 8.54101C9.57706 5.65576 7.58184 4.88526 5.53674 4.50821C4.63889 4.31149 4.04032 4.01641 4.12345 3.34427C4.18996 2.75411 4.82178 2.47542 5.56999 2.49181C6.25169 2.50821 7.03315 2.7705 7.53196 3.32788L9.69344 1.85246C8.67921 0.393444 7.34906 0 5.91915 0C3.75766 0 1.62943 0.836068 1.18051 3.21313C0.764834 5.40985 2.42752 6.86888 4.2731 7.16396C5.22083 7.29511 6.25169 7.60658 6.11867 8.3279C6.00229 8.93446 5.30396 9.21315 4.50587 9.21315C3.62465 9.21315 2.64367 8.8361 2.12823 8.09839L0 9.8361Z" transform="translate(18.5083 2.26343)" fill="white"/>
<path d="M14.1051 2.93444H19.2927L19.6918 0.163935H11.4947L9.84867 11.7705H18.0457L18.4281 9.00003H13.2405L13.4899 7.26232H18.2618L18.6276 4.65575H13.8557L14.1051 2.93444Z" transform="translate(18.5083 2.26343)" fill="white"/>
<path d="M19.6234 11.7705H22.5996L23.0652 8.42626L23.2148 6.08199L23.2813 6.06559L24.2956 10.0492H26.3407L28.4523 6.06559L28.5354 6.08199L28.0366 8.42626L27.5544 11.7705H30.5473L32.1933 0.163935H29.2171L25.9084 5.83609L24.2457 0.163935H21.2695L19.6234 11.7705Z" transform="translate(18.5083 2.26343)" fill="white"/>
<path d="M39.7111 2.95083H44.8987L45.2977 0.163935H37.1007L35.4546 11.7705H38.4641L39.0294 7.77052H43.5685L43.951 5.0328H39.4118L39.7111 2.95083Z" transform="translate(18.5083 2.26343)" fill="white"/>
<path d="M51.502 11.7705H55.2098L52.3832 7.78691C53.996 7.03281 54.9271 6.3115 55.2264 4.16395C55.5589 1.44263 53.8298 0.163935 51.4022 0.163935H46.6968L45.0508 11.7705H48.0602L48.5757 8.08199H49.1077L51.502 11.7705ZM48.9415 5.5574L49.3239 2.90165H51.0697C51.9509 2.90165 52.3001 3.50821 52.217 4.21313C52.1338 4.88526 51.6018 5.5574 50.6873 5.5574H48.9415Z" transform="translate(18.5083 2.26343)" fill="white"/>
<path d="M55.9031 7.95085C55.5206 10.6066 57.7653 11.9345 60.2094 11.9345C62.7699 11.9345 65.2806 10.6066 65.663 7.95085L66.2449 3.98362C66.6274 1.32787 64.3661 0 61.922 0C59.4778 0 56.884 1.31148 56.485 3.98362L55.9031 7.95085ZM59.4612 3.98362C59.5942 3.11476 60.6417 2.67214 61.6061 2.67214C62.5704 2.67214 63.4018 3.11476 63.2687 3.98362L62.6868 7.86888C62.5538 8.78691 61.5063 9.21315 60.5419 9.21315C59.6441 9.21315 58.7629 8.78691 58.8793 7.95085L59.4612 3.98362Z" transform="translate(18.5083 2.26343)" fill="white"/>
<path d="M66.6949 11.7705H69.6711L70.3196 7.13117L70.2863 4.88526L70.3528 4.86887L71.0511 7.19674L73.063 11.7705H76.0724L77.7185 0.163935H74.7589L74.0107 5.42625L74.044 7.42625L73.9775 7.44265L73.3124 5.11477L71.1675 0.163935H68.341L66.6949 11.7705Z" transform="translate(18.5083 2.26343)" fill="white"/>
<path d="M87.824 2.83607L88.223 0.147542H78.8621L78.4631 2.83607H81.6388L80.3918 11.7705H83.4012L84.6482 2.83607H87.824Z" transform="translate(18.5083 2.26343)" fill="white"/>
<path d="M91.9785 2.93444H97.166L97.5651 0.163935H89.3681L87.722 11.7705H95.919L96.3014 9.00003H91.1139L91.3633 7.26232H96.1352L96.501 4.65575H91.7291L91.9785 2.93444Z" transform="translate(18.5083 2.26343)" fill="white"/>
<path d="M102.119 0.163935H99.1428L97.4968 11.7705H100.473L102.119 0.163935Z" transform="translate(18.5083 2.26343)" fill="white"/>
<path d="M108.787 11.7705H112.494L109.668 7.78691C111.281 7.03281 112.212 6.3115 112.511 4.16395C112.844 1.44263 111.114 0.163935 108.687 0.163935H103.981L102.335 11.7705H105.345L105.86 8.08199H106.392L108.787 11.7705ZM106.226 5.5574L106.609 2.90165H108.354C109.236 2.90165 109.585 3.50821 109.502 4.21313C109.418 4.88526 108.886 5.5574 107.972 5.5574H106.226Z" transform="translate(18.5083 2.26343)" fill="white"/>
<path d="M120.435 0.163935H117.725L111.972 11.7705H115.164L116.212 9.44265H119.354L119.803 11.7705H122.996L120.435 0.163935ZM117.259 6.83609L118.556 3.44263H118.673L119.022 6.83609H117.259Z" transform="translate(18.5083 2.26343)" fill="white"/>
<path d="M123.191 9.8361C124.089 11.2295 125.835 11.9345 127.248 11.9345C129.792 11.9345 131.787 10.8033 132.22 8.54101C132.768 5.65576 130.773 4.88526 128.728 4.50821C127.83 4.31149 127.232 4.01641 127.315 3.34427C127.381 2.75411 128.013 2.47542 128.761 2.49181C129.443 2.50821 130.224 2.7705 130.723 3.32788L132.885 1.85246C131.87 0.393444 130.54 0 129.11 0C126.949 0 124.821 0.836068 124.372 3.21313C123.956 5.40985 125.619 6.86888 127.464 7.16396C128.412 7.29511 129.443 7.60658 129.31 8.3279C129.193 8.93446 128.495 9.21315 127.697 9.21315C126.816 9.21315 125.835 8.8361 125.319 8.09839L123.191 9.8361Z" transform="translate(18.5083 2.26343)" fill="white"/>
</svg>
